X: 1
T: Loch Rannoch
C: J.Wilson
R: slow march, strathspey
Z: 2014 John Chambers <jc:trillian.mit.edu>
S: page from Concord Slow Scottish Session collection
N: tune labelled "L.P." and "S.M." at lower right
M: C
L: 1/8
K: A
"A"|:\
"A"A>c e>f "D"a>f e<f | "A"A>c e>f e>c "G"c>B |\
"A"A>c e>f "D"a>f e<f | "A"A>c e>c "G"c<B "A"A2 :]
"B"|:\
"D"f>g a>g "A"f>e c<e | "D"f>e a>c "G"B>A "E"B<c |\
"A"e>c a>e "D"f>a "A"f<e | "A"A>c e>c "G"c<B "A"A2 :]
